X:1
T:Sing to the Lord of Harvest
T:Text: John S. B. Monsell, 1866, alt.; based on Psalm 65:9-13 Tune: Johann Steurlein, 1575
T:76 76 D WIE LIEBLICH IST DER MAIEN www.hymnary.org/text/sing_to_the_lord_of_harvest
T:Sing to the Lord of Harvest
T:This hymn is in the public domain. You may freely use this score for personal and congregational worship. If you reproduce the score, please credit Hymnary.org as the source. 
T:This hymn is in the public domain. You may freely use this score for personal and congregational worship. If you reproduce the score, please credit Hymnary.org as the source. 
Z:This hymn is in the public domain. You may freely use this score for personal and congregational worship. If you reproduce the score, please credit Hymnary.org as the source.
%%score ( 1 2 ) ( 3 4 )
L:1/8
M:4/4
K:Ab
V:1 treble nm="SOPRANO ALTO" snm="S. A."
V:2 treble 
V:3 bass nm="TENOR BASS" snm="T. B."
V:4 bass 
V:1
"^1""^2""^3" E2 | A3 B cB AG | F4 F2 F2 | E2 A2 A2 G2 | A6 | E2 | A3 B cB AG | F4 F2 F2 | %8
w: Sing|to the Lord _ of *|har- vest, sing|songs of love and|praise;|with|joy- ful hearts _ and *|voic- es your|
w: God|makes the clouds _ drop _|fat- ness, the|des- erts bloom and|spring;|the|hills leap up * in *|glad- ness, the|
w: Heap|on * sa- * cred *|al- tar the|gifts his good- ness|gave,|the|gold- en sheaves _ of *|har- vest, the|
 E2 A2 A2 G2 | A6 | c2 | c3 B c2 BA | B4 B2 B2 | A2 c2 dc BA | B6 |1 E2 | A3 G AG FE | F4 F2 F2 | %18
w: al- le- lu- ias|raise.|By|him the roll- ing *|sea- sons in|fruit- ful or- * der *|move;|sing|to the Lord _ of *|har- vest a|
w: val- leys laugh and|sing.|He|fills from his great _|full- ness all|things with large _ in- *|crease;|he|crowns the year _ with _|good- ness, with|
w: souls Christ died to|save.|Your|hearts lay down be- *|fore him when|at his feet * you *|fall,|and|with your lives _ a- *|dore him who|
 E2 A2 A2 G2 | A6 x2 |] %20
w: joy- ful song of|love.|
w: plen- ty, and with|peace.|
w: gave his life for|all.|
V:2
 E2 | A3 E E2 E2 | D4 D2 D2 | E2 E2 F2 E2 | E6 | E2 | E3 E E2 E2 | D4 D2 D2 | E2 E2 F2 E2 | E6 | %10
 E2 | E3 E E2 E2 | (E2 F2) G2 E2 | C2 E2 D2 E2 | (F2 =D2 E2) |1 E2 | E2 D2 C2 A,2 | D4 D2 D2 | %18
 E2 E2 F2 E2 | E6 x2 |] %20
V:3
 E,2 | A,3 G, A,2 A,2 | A,4 B,2 B,A, | G,2 A,2 D2 B,2 | C6 | E,2 | A,3 G, A,2 A,2 | A,4 B,A, G,F, | %8
 G,2 A,2 DC B,2 | C6 | A,2 | A,3 B, A,2 A,2 | (G,2 A,2) B,2 G,2 | A,2 A,2 A,2 A,2 | (A,4 G,2) |1 %15
 E,2 | A,2 E,2 E,2 A,2 | A,4 B,2 B,A, | G,2 A,2 DC B,2 | C6 x2 |] %20
V:4
 E,2 | x3 E, A,,2 C,2 | (D,2 C,2) B,,2 B,,2 | E,2 C,2 B,,2 E,2 | A,,6 | E,2 | C,3 B,, A,,2 C,2 | %7
 (D,2 C,2) B,,2 B,,2 | E,D, C,2 B,,2 E,2 | A,,6 | A,2 | x3 G, A,2 C,2 | E,4 E,2 E,2 | %13
 F,2 _G,2 F,2 C,2 | E,6 |1 E,2 | C,2 B,,2 A,,2 C,2 | (D,2 C,2) B,,2 B,,2 | E,D, C,2 B,,2 E,2 | %19
 A,,6 x2 |] %20

